X:560
T: Mummer's Jig
S: Darley & McCall Collection
Z: B.Black
L: 1/8
M: 6/8
R: jig
K: G
G2B d2g|e2d c2A|d2c B2G|A2G FED|
G2B d2g|e2f g2e|d2c B2A|G3 G3 :|
A2F DED|B2G EFE|B2A AB^c|d3 d3|
c2d e2f|g2f g2e|d2c B2A|G3 G3 :|
